X:1
T:Si dolc'è'il mio contento
T:Giammateo Asola
T:Source : Madrigali a due voci---Venetia---G.Vincenti---1587. Editor : André Vierendeels (23/04/17).
T:Notes : Original clef : C4 [Fuga di duoi (?) tempi, une quinta piu alto] Original note values have been halved Editorial accidentals above the staff
T:Si dolc'è'il mio contento
T:©
T:©
C:Giammateo Asola
Z:©
%%score [ 1 2 ]
L:1/8
Q:1/4=120
M:2/2
K:F
V:1 treble nm="Alto" snm="A"
V:2 treble-8 nm="Tenor" snm="T"
V:1
 z8 | D4 F4- | F2 F2 E2 E2 | F2 A4 G2 | A2 E2 F4 | E4 z2 E2 | G2 G2 F2 E2 | D4 E4 | F2 FF E2 D2 | %9
w: |Si dolc'|_ e'il mio con-|ten- * *|to, si dol-|ce, si|dolc' e'il mio con|ten- to,|quan- do tal hor ti|
 CDEC DEFE/D/ | EF G4 F2 | G4 z2 A2 | B2 G2 A2 c2 | B4 A2 G2 | A2 B2 c2 B2 | A4 G2 D2 | %16
w: sen- * * * * * * * *||to, si-|gnor den- tr'al mio|co- re, dir|che son tuo che|m'a- mi, ch'in|
 A2 E2 F2 F2 | E4 E2 A2- | A2 GF G4 | A4 F4 | G2 A4 F2- | F2 G2 A3 G | FE F2 E4 | z2 A3 A G2 | %24
w: ciel m'as- pet- ti'e|bra- mi, e|_ bra- * *|mi, che|per for- za|_ d'a- mo- *|* * * re,|es- co scor-|
 A2 A2 F4 | E2 A4 F2 | G3 F E4 | D2 D2 GGEE | F2 D2 z DGG | EE F2 D2 z D | G2 E2 FG ^F2 | G8 |] %32
w: di me stes-|s'à mo- do|no- * *|vo, e sol in te mi|tro- vo, e sol in|te mi tro- vo, in|sol in te mi tro-|vo.|
V:2
 G4 B4- | B2 B2 A2 A2 | B2 d4 c2 | d2 A2 B4 | A4 z2 A2 | c2 c2 B2 A2 | G4 A4 | B2 BB A2 G2 | %8
w: Si dolc'|_ è'il mio con-|ten- * *|to, si dol-|ce, si|dolc' è'il mio con-|ten- to,|quan- do tal hor ti|
 FGAF GABA/G/ | AB c4 B2 | c4 z2 d2 | e2 c2 d2 f2 |"^b" e4 d2 c2 |"^b" d2 e2 f2 e2 | d4 c2 G2 | %15
w: sen- * * * * * * * *||to, si-|gnor den- tr'al mio|co- re, dir|che son tuo che|m'a- mi, ch'in|
 d2 A2 B2 B2 | A4 A2 d2- |"^-natural" d2 cB c4 | d4 B4 | c2 d4 B2- | B2 c2 d3 c | BA B2 A4 | %22
w: ciel m'as- pet- ti'e|bra- mi, e|_ bra- * *|mi, che|per for- za|_ d'a- mo- *|* * * re,|
 z2 d3 d c2 | d2 d2 B4 | A2 d4 B2 | c3 B A4 | G2 G2 ccAA | B2 G2 z Gcc | AA B2 G2 z G | %29
w: es- co scor-|di me stes-|s'à mo- do|no- * *|vo, e sol in te mi|tro- vo, e sol in|te mi tro- vo, e|
 c2 A2 BG =B2 | cGcc AB A2 | G8 |] %32
w: sol in te mi tro-|vo, e sol in te mi tro-|vo.|

